icons/signature.svg

<svg xmlns="http://www.w3.org/2000/svg" width="24" height="24"><path d="M23.5 12H19a.5.5 0 0 0 0 1h4v8H1v-8h6a.5.5 0 0 0 0-1H.5a.5.5 0 0 0-.5.5v9a.5.5 0 0 0 .5.5h23a.5.5 0 0 0 .5-.5v-9a.5.5 0 0 0-.5-.5z"/><path d="M8.212 17.5a.506.506 0 0 0 .197-.04l4.94-2.116v-.003a.512.512 0 0 0 .156-.1l8.84-8.84a.5.5 0 0 0 0-.71l-2.83-2.83a.5.5 0 0 0-.706 0L9.97 11.7a.495.495 0 0 0-.104.16l-.003.01v.003L7.75 16.81a.497.497 0 0 0 .46.696zm9.124-11.745l2.12 2.12-6.295 6.298-2.12-2.122 6.3-6.29zm1.836-1.836l2.12 2.12-1.128 1.13-2.12-2.13 1.128-1.13zm-8.67 9l1.783 1.783-3.122 1.337 1.34-3.122z"/></svg>

<?xml version="1.0" encoding="utf-8"?>
<!-- Generator: Adobe Illustrator 16.0.0, SVG Export Plug-In . SVG Version: 6.00 Build 0)  -->
<!DOCTYPE svg PUBLIC "-//W3C//DTD SVG 1.1//EN" "http://www.w3.org/Graphics/SVG/1.1/DTD/svg11.dtd">
<svg version="1.1" id="Outline_Icons" xmlns="http://www.w3.org/2000/svg" xmlns:xlink="http://www.w3.org/1999/xlink" x="0px"
	 y="0px" width="24px" height="24px" viewBox="0 0 24 24" enable-background="new 0 0 24 24" xml:space="preserve">
<g>
	<path d="M23.5,12H19c-0.276,0-0.5,0.224-0.5,0.5S18.724,13,19,13h4v8H1v-8h6c0.276,0,0.5-0.224,0.5-0.5S7.276,12,7,12H0.5
		C0.224,12,0,12.224,0,12.5v9C0,21.776,0.224,22,0.5,22h23c0.276,0,0.5-0.224,0.5-0.5v-9C24,12.224,23.776,12,23.5,12z"/>
	<path d="M8.212,17.5c0.066,0,0.133-0.013,0.197-0.04l4.94-2.116l0.001,0l0.008-0.003c0.059-0.025,0.112-0.062,0.157-0.106
		l8.839-8.841c0.195-0.195,0.195-0.512,0-0.707l-2.828-2.828c-0.195-0.195-0.512-0.195-0.707,0l-8.839,8.838
		c-0.045,0.045-0.081,0.098-0.106,0.157L9.87,11.861c0,0.001,0,0.001-0.001,0.002l-2.117,4.94c-0.081,0.188-0.039,0.406,0.106,0.55
		C7.954,17.449,8.082,17.5,8.212,17.5z M17.336,5.755l2.121,2.121l-6.296,6.297l-2.121-2.122L17.336,5.755z M19.172,3.919
		l2.121,2.121l-1.129,1.129l-2.121-2.121L19.172,3.919z M10.502,12.927l1.783,1.785l-3.122,1.337L10.502,12.927z"/>
</g>
</svg>
